icon/fa/burst.svg

<svg xmlns="http://www.w3.org/2000/svg" viewBox="0 0 512 512" height="1em" width="1em">
<!--! Font Awesome Free 6.1.2 by @fontawesome - https://fontawesome.com License - https://fontawesome.com/license/free (Icons: CC BY 4.0, Fonts: SIL OFL 1.1, Code: MIT License) Copyright 2022 Fonticons, Inc.-->
  <path d="M200.9 116.2L233.2 16.6C236.4 6.706 245.6 .001 256 .001C266.4 .001 275.6 6.706 278.8 16.6L313.3 123.1L383.8 97.45C392.6 94.26 402.4 96.43 408.1 103C415.6 109.6 417.7 119.4 414.6 128.2L388.9 198.7L495.4 233.2C505.3 236.4 512 245.6 512 256C512 266.4 505.3 275.6 495.4 278.8L392.3 312.2L445.2 412.8C450.1 422.1 448.4 433.5 440.1 440.1C433.5 448.4 422.1 450.1 412.8 445.2L312.2 392.3L278.8 495.4C275.6 505.3 266.4 512 256 512C245.6 512 236.4 505.3 233.2 495.4L199.8 392.3L99.17 445.2C89.87 450.1 78.46 448.4 71.03 440.1C63.6 433.5 61.87 422.1 66.76 412.8L119.7 312.2L16.6 278.8C6.705 275.6 .0003 266.4 .0003 256C.0003 245.6 6.705 236.4 16.6 233.2L116.2 200.9L4.208 37.57C-2.33 28.04-1.143 15.2 7.03 7.03C15.2-1.144 28.04-2.33 37.57 4.208L200.9 116.2z"/>
</svg>

<svg xmlns="http://www.w3.org/2000/svg" viewBox="0 0 512 512"><!--! Font Awesome Free 6.1.2 by @fontawesome - https://fontawesome.com License - https://fontawesome.com/license/free (Icons: CC BY 4.0, Fonts: SIL OFL 1.1, Code: MIT License) Copyright 2022 Fonticons, Inc.--><path d="m200.9 116.2 32.3-99.6A23.96 23.96 0 0 1 256 .001c10.4 0 19.6 6.705 22.8 16.599l34.5 106.5 70.5-25.65c8.8-3.19 18.6-1.02 24.3 5.55 7.5 6.6 9.6 16.4 6.5 25.2l-25.7 70.5 106.5 34.5c9.9 3.2 16.6 12.4 16.6 22.8s-6.7 19.6-16.6 22.8l-103.1 33.4 52.9 100.6c4.9 9.3 3.2 20.7-5.1 27.3-6.6 8.3-18 10-27.3 5.1l-100.6-52.9-33.4 103.1c-3.2 9.9-12.4 16.6-22.8 16.6s-19.6-6.7-22.8-16.6l-33.4-103.1-100.63 52.9c-9.3 4.9-20.71 3.2-28.14-5.1-7.43-6.6-9.16-18-4.27-27.3l52.94-100.6-103.1-33.4A23.96 23.96 0 0 1 0 256c0-10.4 6.705-19.6 16.6-22.8l99.6-32.3L4.208 37.57C-2.33 28.04-1.143 15.2 7.03 7.03c8.17-8.174 21.01-9.36 30.54-2.822L200.9 116.2z"/></svg>
